X: 043
T: 8 Le Ballet Hollandois
T: le Ballet Hollandois
B: Robert Landrin "Potpourri fran\,cois des contre-danse ancienne tel quil se danse chez la Reine ..." 1760 p.4 #3 dance 01 #9
S: http://memory.loc.gov/cgi-bin/query/D?musdibib:2:./temp/~ammem_EbRS:
Z: 2014 John Chambers <jc:trillian.mit.edu>
M: 6/8
L: 1/8
K: G
% - - - - - - - - - - - - - - - - - - - - - - - - -
d2c |\
BAG ABA | GBc d2c | BAG A3 | G3 |]|\
!segno!AB!f!G |\
ABG ABG | A3 c2B |
A2G FGA | D3 ABG |\
ABG ABG | A3 c2B | A2G AGF | G3 |]|\
ga!f!g |\
fgf efe |
def gag | fed e3 | d3 gag |\
fgf efe | def gag | fed e3 | d3 !segno!|]
% - - - - - - - - - - - - - - - - - - - - - - - - -

%%newpage
%%sep 1 1 500
%%sep 1 1 500
